assets/images/meter.svg

<svg xmlns="http://www.w3.org/2000/svg" xmlns:xlink="http://www.w3.org/1999/xlink" id="Layer_1" x="0" y="0" version="1.1" viewBox="0 0 20 20" style="enable-background:new 0 0 20 20" xml:space="preserve"><path fill-rule="evenodd" d="M0.500078 14C0.223936 14 -0.00122675 13.776 0.0125645 13.5002C0.136085 11.03 1.17179 8.68615 2.92901 6.92893C4.80437 5.05357 7.34791 4 10.0001 4C12.6522 4 15.1958 5.05357 17.0711 6.92893C18.8284 8.68615 19.8641 11.03 19.9876 13.5002C20.0014 13.776 19.7762 14 19.5001 14L17.5001 14C17.2239 14 17.0019 13.7758 16.9822 13.5004C16.8625 11.8265 16.1443 10.2447 14.9498 9.05025C13.6371 7.7375 11.8566 7 10.0001 7C8.14356 7 6.36309 7.7375 5.05033 9.05025C3.85584 10.2447 3.13763 11.8265 3.01792 13.5004C2.99822 13.7758 2.77622 14 2.50008 14H0.500078ZM12 14C12 15.1046 11.1046 16 10 16C8.89543 16 8 15.1046 8 14C8 12.8954 8.89543 12 10 12C10.1772 12 10.349 12.023 10.5125 12.0663L12.3999 9.5498L13.5999 10.4498L11.7125 12.9663C11.895 13.268 12 13.6217 12 14Z" clip-rule="evenodd"/></svg>

<svg xmlns="http://www.w3.org/2000/svg" xml:space="preserve" viewBox="0 0 20 20"><path fill-rule="evenodd" d="M.5 14a.48.48 0 0 1-.487-.5 10 10 0 0 1 19.975 0 .48.48 0 0 1-.488.5h-2a.53.53 0 0 1-.518-.5 7 7 0 0 0-13.964 0 .53.53 0 0 1-.518.5zM12 14a2 2 0 1 1-1.488-1.934L12.4 9.55l1.2.9-1.887 2.516c.182.302.287.656.287 1.034" clip-rule="evenodd"/></svg>
